public/logo.svg

<svg width="252" height="58" viewBox="0 0 252 58" fill="none" xmlns="http://www.w3.org/2000/svg">
<path d="M90.9211 23.5046C88.8195 16.1608 83.6821 12.6702 78.9184 12.6702C72.7536 12.6702 67.1492 18.5634 69.5311 29.3978C71.4459 38.0562 77.5173 41.4561 83.4953 41.4561C89.4733 41.4561 95.7783 37.8295 97.1327 32.571L97.6931 32.6163C95.7316 40.0055 89.9871 44.04 81.6272 44.04C72.0063 44.04 64.4404 38.1469 64.4404 27.7205C64.4404 17.2941 72.0063 11.4009 81.6272 11.4009C85.8305 11.4009 94.4706 13.6222 94.4706 19.1073C94.4706 21.4646 92.836 22.6886 91.4816 23.2779L90.9211 23.5046Z" fill="#003837"/>
<path d="M101.803 11.854H106.753V26.6323H122.632V11.854H127.63V43.5865H122.632V27.6296H106.753V43.5865H101.803V11.854Z" fill="#003837"/>
<path d="M133.981 11.854H138.932V43.5865H133.981V11.854Z" fill="#003837"/>
<path d="M145.097 17.5659V11.854H167.187L149.58 42.6799H153.27C156.679 42.6799 160.836 41.4106 163.638 39.4613L165.833 37.8293V43.5865H143.462L161.116 12.8966H157.52C154.39 12.8966 150.561 13.9846 147.945 15.6619L145.097 17.5659Z" fill="#003837"/>
<path d="M190.446 37.8268V43.584H171.765V11.854H176.668V42.5892H178.116C181.386 42.5892 185.355 41.3652 188.064 39.5973L190.446 37.8293V37.8268Z" fill="#003837"/>
<path d="M199.693 43.5841H191.566L205.951 11.8516H210.528L223.651 43.5841H217.767L213.797 33.2937H197.731C197.124 36.4669 197.638 40.0028 199.226 42.7228L199.693 43.5841ZM213.423 32.2964L206.511 14.2542L206.184 13.5742L198.619 30.5737C198.338 31.1177 198.152 31.7071 197.965 32.2964H213.423Z" fill="#003837"/>
<path d="M227.154 11.854H238.69C247.143 11.854 249.198 15.5712 249.198 20.0138C249.198 24.1844 246.162 27.3123 241.913 27.3123V27.5389C249.198 27.5389 251.3 31.3015 251.3 35.2001C251.3 39.3253 248.731 43.5865 239.951 43.5865H227.154V11.854ZM239.297 27.1763C242.239 27.1763 244.294 23.459 244.294 19.8325C244.294 16.2059 242.333 12.8513 239.297 12.8513H232.105L232.058 27.1763H239.297ZM239.344 42.5892C243.641 42.5892 246.022 38.7813 246.022 35.2907C246.022 31.5735 243.454 28.1736 239.764 28.1736H232.105V42.5892H239.344Z" fill="#003837"/>
<path d="M57.1154 55.4387H0V0H57.1154V55.4387ZM1.55677 53.9277H55.5586V1.51107H1.55677V53.9277Z" fill="#003837"/>
<path d="M46.8016 37.9681C46.8016 40.2095 46.3735 42.3552 45.5874 44.3272H39.5808C40.9352 42.0908 41.724 39.4162 41.724 36.5426C41.724 28.6825 35.829 22.3134 28.5589 22.3134C21.2887 22.3134 15.3937 28.6825 15.3937 36.5426C15.3937 39.4162 16.1825 42.0908 17.5369 44.3272H11.5278C10.7416 42.3552 10.3135 40.2095 10.3135 37.9681C10.3135 28.1864 18.4813 20.2583 28.5589 20.2583C38.6364 20.2583 46.8016 28.1864 46.8016 37.9681Z" fill="#003837"/>
<path d="M42.5046 11.1089C39.1757 15.3726 33.9008 18.1278 27.9618 18.1278C23.3745 18.1278 19.179 16.4833 15.9746 13.7684L17.4068 12.3177C19.7161 14.4609 22.7777 15.763 26.1403 15.763C30.0971 15.763 33.6414 13.9573 36.0258 11.1089H42.5046Z" fill="#003837"/>
<path d="M16.748 11.6906L15.3028 13.1589L14.6074 11.1089L16.748 11.6906Z" fill="#003837"/>
</svg>

<svg xmlns="http://www.w3.org/2000/svg" width="252" height="58" fill="none" viewBox="0 0 252 58"><path fill="#003837" d="M90.921 23.505C88.82 16.16 83.682 12.67 78.918 12.67c-6.164 0-11.769 5.893-9.387 16.728 1.915 8.658 7.986 12.058 13.964 12.058s12.283-3.626 13.638-8.885l.56.045c-1.961 7.39-7.706 11.424-16.066 11.424-9.62 0-17.187-5.893-17.187-16.32S72.006 11.4 81.627 11.4c4.204 0 12.844 2.222 12.844 7.707 0 2.358-1.635 3.582-2.99 4.17zM101.803 11.854h4.95v14.778h15.879V11.854h4.998v31.733h-4.998V27.63h-15.879v15.957h-4.95zM133.981 11.854h4.951v31.733h-4.951zM145.097 17.566v-5.712h22.09L149.58 42.68h3.69c3.409 0 7.566-1.27 10.368-3.219l2.195-1.632v5.758h-22.371l17.654-30.69h-3.596c-3.13 0-6.959 1.088-9.575 2.765zM190.446 37.827v5.757h-18.681v-31.73h4.903v30.735h1.448c3.27 0 7.239-1.224 9.948-2.992l2.382-1.768zM199.693 43.584h-8.127l14.385-31.732h4.577l13.123 31.732h-5.884l-3.97-10.29h-16.066c-.607 3.173-.093 6.709 1.495 9.429zm13.73-11.288-6.912-18.042-.327-.68-7.565 17c-.281.544-.467 1.133-.654 1.722zM227.154 11.854h11.536c8.453 0 10.508 3.717 10.508 8.16 0 4.17-3.036 7.298-7.285 7.298v.227c7.285 0 9.387 3.762 9.387 7.661 0 4.125-2.569 8.386-11.349 8.386h-12.797zm12.143 15.322c2.942 0 4.997-3.717 4.997-7.343s-1.961-6.982-4.997-6.982h-7.192l-.047 14.325zm.047 15.413c4.297 0 6.678-3.808 6.678-7.298 0-3.717-2.568-7.117-6.258-7.117h-7.659v14.415zM57.115 55.439H0V0h57.115zM1.557 53.928h54.002V1.51H1.557z"/><path fill="#003837" d="M46.802 37.968c0 2.241-.428 4.387-1.215 6.36h-6.006c1.354-2.237 2.143-4.912 2.143-7.785 0-7.86-5.895-14.23-13.165-14.23s-13.165 6.37-13.165 14.23c0 2.873.789 5.548 2.143 7.784h-6.01a17.1 17.1 0 0 1-1.213-6.359c0-9.782 8.167-17.71 18.245-17.71 10.077 0 18.243 7.928 18.243 17.71M42.505 11.109c-3.33 4.264-8.604 7.019-14.543 7.019-4.587 0-8.783-1.645-11.987-4.36l1.432-1.45c2.31 2.143 5.37 3.445 8.733 3.445 3.957 0 7.501-1.806 9.886-4.654zM16.748 11.69l-1.445 1.469-.696-2.05z"/></svg>
